src/img/icons/video.svg

<svg width="32" height="32" viewBox="0 0 32 32" fill="none" xmlns="http://www.w3.org/2000/svg">
<path d="M14.7207 18.9486L19.9333 15.6076C20.2736 15.3836 20.4437 15.07 20.4437 14.6666C20.4437 14.2633 20.2736 13.9496 19.9333 13.7256L14.7207 10.3846C14.3531 10.1384 13.9745 10.1183 13.5847 10.3243C13.1949 10.5303 13 10.8572 13 11.305V18.0283C13 18.4761 13.1949 18.803 13.5847 19.009C13.9745 19.215 14.3531 19.1948 14.7207 18.9486ZM5.74368 24.6666C5.07012 24.6666 4.50001 24.4333 4.03334 23.9666C3.56668 23.5 3.33334 22.9298 3.33334 22.2563V7.07696C3.33334 6.4034 3.56668 5.83329 4.03334 5.36663C4.50001 4.89996 5.07012 4.66663 5.74368 4.66663H26.2563C26.9299 4.66663 27.5 4.89996 27.9667 5.36663C28.4333 5.83329 28.6667 6.4034 28.6667 7.07696V22.2563C28.6667 22.9298 28.4333 23.5 27.9667 23.9666C27.5 24.4333 26.9299 24.6666 26.2563 24.6666H20.6667V26.128C20.6667 26.4717 20.5517 26.7585 20.3217 26.9883C20.0919 27.2183 19.8051 27.3333 19.4613 27.3333H12.5387C12.1949 27.3333 11.9081 27.2183 11.6783 26.9883C11.4483 26.7585 11.3333 26.4717 11.3333 26.128V24.6666H5.74368ZM5.74368 22.6666H26.2563C26.359 22.6666 26.453 22.6238 26.5383 22.5383C26.6239 22.453 26.6667 22.359 26.6667 22.2563V7.07696C26.6667 6.97429 26.6239 6.88029 26.5383 6.79496C26.453 6.7094 26.359 6.66663 26.2563 6.66663H5.74368C5.64101 6.66663 5.54701 6.7094 5.46168 6.79496C5.37612 6.88029 5.33334 6.97429 5.33334 7.07696V22.2563C5.33334 22.359 5.37612 22.453 5.46168 22.5383C5.54701 22.6238 5.64101 22.6666 5.74368 22.6666Z" fill="#131212"/>
</svg>

<svg xmlns="http://www.w3.org/2000/svg" viewBox="0 0 32 32">
  <path fill="currentColor" d="m14.72 18.949 5.213-3.341c.34-.224.51-.538.51-.941 0-.404-.17-.717-.51-.941l-5.212-3.341c-.368-.247-.746-.267-1.136-.06-.39.205-.585.532-.585.98v6.723c0 .448.195.775.585.981.39.206.768.186 1.136-.06Zm-8.976 5.718a2.327 2.327 0 0 1-1.71-.7 2.327 2.327 0 0 1-.7-1.71V7.076c0-.674.233-1.244.7-1.71a2.327 2.327 0 0 1 1.71-.7h20.512c.674 0 1.244.233 1.71.7.467.466.7 1.036.7 1.71v15.18c0 .673-.233 1.243-.7 1.71-.466.466-1.036.7-1.71.7h-5.59v1.461c0 .344-.114.63-.344.86-.23.23-.517.345-.86.345h-6.923c-.344 0-.63-.115-.86-.345a1.167 1.167 0 0 1-.346-.86v-1.461h-5.59Zm0-2h20.512a.391.391 0 0 0 .282-.129.391.391 0 0 0 .129-.282V7.077a.391.391 0 0 0-.129-.282.391.391 0 0 0-.282-.128H5.744a.391.391 0 0 0-.282.128.391.391 0 0 0-.129.282v15.18c0 .102.043.196.129.281a.39.39 0 0 0 .282.129Z"/>
</svg>
